Numix/scalable/status/audio-volume-muted-symbolic.svg

<?xml version="1.0" encoding="UTF-8" standalone="no"?>
<svg
   xmlns:dc="http://purl.org/dc/elements/1.1/"
   xmlns:cc="http://creativecommons.org/ns#"
   xmlns:rdf="http://www.w3.org/1999/02/22-rdf-syntax-ns#"
   xmlns:svg="http://www.w3.org/2000/svg"
   xmlns="http://www.w3.org/2000/svg"
   xmlns:sodipodi="http://sodipodi.sourceforge.net/DTD/sodipodi-0.dtd"
   xmlns:inkscape="http://www.inkscape.org/namespaces/inkscape"
   width="16"
   viewBox="0 0 16 16"
   height="16"
   id="svg2"
   version="1.1"
   inkscape:version="0.91 r"
   sodipodi:docname="audio-volume-muted-symbolic.svg">
  <metadata
     id="metadata30">
    <rdf:RDF>
      <cc:Work
         rdf:about="">
        <dc:format>image/svg+xml</dc:format>
        <dc:type
           rdf:resource="http://purl.org/dc/dcmitype/StillImage" />
        <dc:title />
      </cc:Work>
    </rdf:RDF>
  </metadata>
  <sodipodi:namedview
     pagecolor="#ffffff"
     bordercolor="#666666"
     borderopacity="1"
     objecttolerance="10"
     gridtolerance="10"
     guidetolerance="10"
     inkscape:pageopacity="0"
     inkscape:pageshadow="2"
     inkscape:window-width="1920"
     inkscape:window-height="1056"
     id="namedview28"
     showgrid="true"
     inkscape:zoom="38.125"
     inkscape:cx="0.8"
     inkscape:cy="8"
     inkscape:window-x="0"
     inkscape:window-y="24"
     inkscape:window-maximized="1"
     inkscape:current-layer="svg2"
     showguides="false">
    <inkscape:grid
       type="xygrid"
       id="grid4158" />
  </sodipodi:namedview>
  <defs
     id="defs4" />
  <path
     d="M 6,2 2,6 2,10 6,14 6,9 7,8 6,7 Z"
     id="path18"
     inkscape:connector-curvature="0"
     style="fill:#bebebe"
     sodipodi:nodetypes="cccccccc" />
  <path
     d="M 1.300003,5 C 0.216589,5 0,6.163269 0,7.4 L 0,8.6 C 0,9.836747 0.24312,11 1.300003,11 L 3,11 3,5 Z"
     id="path20"
     inkscape:connector-curvature="0"
     style="fill:#bebebe"
     sodipodi:nodetypes="ssssccs" />
  <path
     inkscape:connector-curvature="0"
     style="color:#000000;opacity:0.4;fill:#bebebe"
     d="M 9.193846,4.0000002 8,5.1938465 10.806154,8.0000001 8,10.806154 9.193846,12 12,9.1938462 14.806154,12 16,10.806154 13.193846,8.0000001 16,5.1938465 14.806154,4.0000002 12,6.8061537 Z"
     id="path10" />
</svg>

<svg xmlns="http://www.w3.org/2000/svg" viewBox="0 0 16 16">
 <path d="M 6,2 2,6 2,10 6,14 6,9 7,8 6,7 Z" style="fill:#bebebe"/>
 <path d="m 1.3 5 c -1.083 0 -1.3 1.163 -1.3 2.4 l 0 1.2 c 0 1.237 0.243 2.4 1.3 2.4 l 1.7 0 0 -6" style="fill:#bebebe"/>
 <path d="m 9.194 4 -1.194 1.194 2.806 2.806 -2.806 2.806 1.194 1.194 2.806 -2.806 2.806 2.806 1.194 -1.194 -2.806 -2.806 2.806 -2.806 -1.194 -1.194 -2.806 2.806" style="fill:#bebebe;opacity:0.4;color:#000"/>
</svg>
